X:24
T: Mo'm Gre't, wll der mer net gin ert Mrei?, S. 29
N: R0048
O: Luxemburg
S: D'Fraen um Kanddaaf an der aler Zeit, Luxemburg 1929]
R: ??, Liebeslied?]
M: 4/4
L: 1/16
K: G
D4 | G6D2E2DDE2D2 | G8z4
B4 | A4G4F4E4 | D4C4B,4
D2D2 | G4G4A4A4 | B6c2d2z2
BBGG | D4c4B4A4 | G12

